X: 13425
T: Floating From Skerry
R: waltz
M: 3/4
K: Eminor
B,||E3F G A|B3A G2|A2 B2 d2|e4 g f|e3d B2|B2 A2 G2|F2 D2 B,2|B,4 D2|
E3F G A|B3A G2|A4 Bd|e4 g f|e3d B2|c2 B2 A2|BG EG (3 FED|E6||
|:e3f g e|a3g f d|e3f (3 gfe|f2 d2 B2|e3f g e|a3g f d|e3-|e3:|

